X:699
T:Mrs. Garden of Troup
R:Reel
C:Robert Petrie
B:The Athole Collection
M:C|
L:1/8
K:F
c|Ac f2 afef|dfcA BGGB|Ac f2 afef|dfcf AFFB|Acfg afef|dfcA BGGB|
Acfa gafc|dfcB AFF||d|cAFc AFcA|BdcA BGGd|cAFc AFcA|BdcB AFFd|
cAFc AFcA|BdcA BGGB|Acfa Bdgb|afge fFF||

